X:206
T:Nue Pnues
C:Andy Cutting
Z:robin.beech@mcgill.ca
R:reel
M:2/2
L:1/8
K:G
"C"cdeg | "D"^f2ed | "Em"BB^fd | "Em"e3d | "C"c2de | "D"e^fed | "G"B4- | "G"BBAB | "C"cdeg | "D"a2a^f |
"Em"ddB^f | "Em"g2ed | "C"cdeg | "D"aag^f |1 "G"g4- | "G"g2BB :|2 "G"g4- | gG^FG |: "C"E2cE | "D"^F2d^F |
"Em"^FAd^f | "Em"g2ed | "C"c2de | "D"e^fed | "G"B4- | "G"BBAG | "C"EEcE | "D"D^FAd |
"Em"^F^FBd | "Em"eged | "C"cdeg | "D"aag^f |1 "G"g4- | "G"gG^FG :|2 "G"g4- | "G"g2BB |]
